X: 8321
T: Cory's
R: polka
M: 2/4
K: Dmajor
|:fA fA|f/g/f/e/ de/f/|gB gB|g/a/g/f/ ed/e/|
fA fA|f/g/f/e/ de/f/|eg Bc|1 d2- dd/e/:|2 d2- d2||
|:A>B AG|FA dB|A>B AF|E4|
A>B AG|FA dc/d/|eg Bc|1 d2- d2:|2 d2- dd/e/||

